Hatter-kde/actions/24/unmarkasblank.svg

<svg xmlns="http://www.w3.org/2000/svg" viewBox="0 0 24 24">
  <defs id="defs3051">
    <style type="text/css" id="current-color-scheme">
      .ColorScheme-Text {
        color:#363636;
      }
      .ColorScheme-Highlight {
        color:#3daee9;
      }
      </style>
  </defs><g transform="translate(1,1)">
 <path 
     style="fill:currentColor;fill-opacity:1;stroke:none" 
     d="M 2 3 L 2 19 L 3 19 L 5 19 L 5 18 L 3 18 L 3 4 L 5 4 L 5 3 L 3 3 L 2 3 z M 16 3 L 16 4 L 18 4 L 18 13 L 19 13 L 19 3 L 18 3 L 16 3 z M 5 14 L 5 15 L 5 16 L 13 16 L 13 15 L 6 15 L 6 14 L 5 14 z "
     class="ColorScheme-Text"
     />
 <path 
     style="fill:#da4453;fill-opacity:1;stroke:none" 
     d="M 14.833984 14 L 14 14.833984 L 15.666016 16.5 L 14 18.166016 L 14.833984 19 L 16.5 17.333984 L 18.166016 19 L 19 18.166016 L 17.333984 16.5 L 19 14.833984 L 18.166016 14 L 16.5 15.666016 L 14.833984 14 z "
     />
</g></svg>

<?xml version="1.0" encoding="UTF-8"?>
<svg viewBox="0 0 24 24" xmlns="http://www.w3.org/2000/svg">
 <defs id="defs3051">
  <style id="current-color-scheme" type="text/css">.ColorScheme-Text {
        color:#363636;
      }
      .ColorScheme-Highlight {
        color:#3daee9;
      }</style>
 </defs>
 <g transform="translate(1,1)">
  <path class="ColorScheme-Text" d="m2 3v16h1 2v-1h-2v-14h2v-1h-2-1zm14 0v1h2v9h1v-10h-1-2zm-11 11v1 1h8v-1h-7v-1h-1z" fill="currentColor"/>
  <path d="m14.834 14-0.83398 0.83398 1.666 1.666-1.666 1.666 0.83398 0.83398 1.666-1.666 1.666 1.666 0.83398-0.83398-1.666-1.666 1.666-1.666-0.83398-0.83398-1.666 1.666-1.666-1.666z" fill="#da4453"/>
 </g>
</svg>
